X:1
T:Poor Ellen Smith
M:4/4
L:1/4
K:F
 c2 d c| F2 F F| A2 G F| C2 z D| F- G F D| C- D F2| A2 G G| F3 F| A c d c|\
 F2 z F| A2 G F| C2 z D| F- G F D| C- D F F| A2 G G| F4|
